src/16/panel/indicator-sensors-gpu.svg

<svg xmlns="http://www.w3.org/2000/svg" width="16" height="16" version="1.1">
 <defs>
  <style id="current-color-scheme" type="text/css">
   .ColorScheme-Text { color:#dfdfdf; } .ColorScheme-Highlight { color:#5294e2; }
  </style>
 </defs>
 <path style="fill:currentColor" class="ColorScheme-Text" d="M 3.108,1 A 1.0001,1.0001 0 0 1 4.014,2 V 15 A 1.0001,1.0001 0 1 1 2.014,15 V 3 H 1.014 A 1.0001,1.0001 0 1 1 1.014,1 H 3.014 A 1.0001,1.0001 0 0 1 3.108,1 Z"/>
 <path style="fill:currentColor" class="ColorScheme-Text" d="M 3.014,6 V 6.5 8.5 9 H 2.514 0.514 0.014 V 8.5 6.5 6 H 0.514 2.514 Z M 2.014,7 H 1.014 V 8 H 2.014 Z"/>
 <path style="fill:currentColor" class="ColorScheme-Text" d="M 3.014,10 V 10.5 12.5 13 H 2.514 0.514 0.014 V 12.5 10.5 10 H 0.514 2.514 Z M 2.014,11 H 1.014 V 12 H 2.014 Z"/>
 <path style="fill:currentColor" class="ColorScheme-Text" d="M 16.014,4 V 5 15 16 H 15.014 7.014 6.014 V 15 14 H 5.014 V 12 H 6.014 7.014 8.014 V 13 14 H 14.014 V 6 H 12.014 11.014 6.014 5.514 5.014 V 4 H 5.514 6.014 11.014 12.014 15.014 Z"/>
 <path style="fill:currentColor" class="ColorScheme-Text" d="M 13.014,7.1 V 11.1 H 12.014 V 7.1 Z M 11.014,7.1 V 11.1 H 10.014 V 7.1 Z M 9.014,7.1 V 11.1 H 8.014 V 7.1 Z M 7.014,7.1 V 11.1 H 6.014 V 7.1 Z"/>
</svg>

<svg xmlns="http://www.w3.org/2000/svg" width="16" height="16"><defs><style id="current-color-scheme" type="text/css">.ColorScheme-Text{color:#dfdfdf}</style></defs><path class="ColorScheme-Text" d="M3.108 1a1 1 0 0 1 .906 1v13a1 1 0 1 1-2 0V3h-1a1 1 0 1 1 0-2h2a1 1 0 0 1 .094 0z" fill="currentColor"/><path class="ColorScheme-Text" d="M3.014 6v3h-3V6h2.5zm-1 1h-1v1h1zM3.014 10v3h-3v-3h2.5zm-1 1h-1v1h1zM16.014 4v12h-10v-2h-1v-2h3v2h6V6h-9V4h10z" fill="currentColor"/><path class="ColorScheme-Text" d="M13.014 7.1v4h-1v-4zm-2 0v4h-1v-4zm-2 0v4h-1v-4zm-2 0v4h-1v-4z" fill="currentColor"/></svg>
